ix/percentage-circle_bold.svg

<svg viewBox="0 0 24 24" fill="none" xmlns="http://www.w3.org/2000/svg" height="1em" width="1em">
  <path d="M12 2C6.48 2 2 6.48 2 12s4.48 10 10 10 10-4.48 10-10S17.52 2 12 2ZM8.73 7.66c.81 0 1.48.66 1.48 1.48 0 .81-.66 1.48-1.48 1.48-.81 0-1.48-.66-1.48-1.48s.66-1.48 1.48-1.48Zm.12 8.14c-.15.15-.34.22-.53.22s-.38-.07-.53-.22a.754.754 0 0 1 0-1.06l6.55-6.55c.29-.29.77-.29 1.06 0 .29.29.29.77 0 1.06L8.85 15.8Zm6.42.54c-.81 0-1.48-.66-1.48-1.48 0-.81.66-1.48 1.48-1.48.81 0 1.48.66 1.48 1.48s-.66 1.48-1.48 1.48Z" fill="#292D32"/>
</svg>

<svg viewBox="0 0 24 24" fill="none" xmlns="http://www.w3.org/2000/svg" height="1em" width="1em">
  <path d="M12 2C6.48 2 2 6.48 2 12C2 17.52 6.48 22 12 22C17.52 22 22 17.52 22 12C22 6.48 17.52 2 12 2ZM8.73 7.66C9.54 7.66 10.21 8.32 10.21 9.14C10.21 9.95 9.55 10.62 8.73 10.62C7.92 10.62 7.25 9.96 7.25 9.14C7.25 8.32 7.91 7.66 8.73 7.66ZM8.85 15.8C8.7 15.95 8.51 16.02 8.32 16.02C8.13 16.02 7.94 15.95 7.79 15.8C7.5 15.51 7.5 15.03 7.79 14.74L14.34 8.19C14.63 7.9 15.11 7.9 15.4 8.19C15.69 8.48 15.69 8.96 15.4 9.25L8.85 15.8ZM15.27 16.34C14.46 16.34 13.79 15.68 13.79 14.86C13.79 14.05 14.45 13.38 15.27 13.38C16.08 13.38 16.75 14.04 16.75 14.86C16.75 15.68 16.09 16.34 15.27 16.34Z" fill="#292D32"/>
</svg>
